svgs/1F632.svg

<svg xmlns="http://www.w3.org/2000/svg" xmlns:xlink="http://www.w3.org/1999/xlink" preserveAspectRatio="none" viewBox="0 0 72 72"><defs><path id="a" fill="#FCC21B" d="M36 5.45q-22.35 0-31.1 20.6Q.1 37.3.1 52.5q0 5.85 10.55 9.95Q21.1 66.6 36 66.6q14.85 0 25.35-4.15 10.5-4.1 10.5-9.95 0-15.2-4.75-26.45Q58.3 5.45 36 5.45z"/><path id="c" fill="#2F2F2F" d="M47.8 44.7q-2.45-2.85-5.8-2.8-3.35.05-5.75 2.9-2.35 2.9-2.3 6.9.05 4 2.45 6.85 2.45 2.8 5.8 2.75 3.35-.05 5.7-2.9t2.35-6.85q-.05-4.05-2.45-6.85z"/><path id="d" fill="#2F2F2F" d="M45.3 32.9q1.35 1.6 3.25 1.6t3.25-1.6q1.3-1.6 1.3-3.85t-1.35-3.9q-1.35-1.6-3.25-1.55-1.85 0-3.2 1.6t-1.35 3.85q0 2.25 1.35 3.85z"/><path id="e" fill="#ED6C30" d="M75.2 75.55Q71.1 69.1 64 69.1q-7.15 0-11.2 6.45-3.6 5.65-3.6 13.75 0 7.3 3.8 11.15 3.8 3.85 11 3.85 7.15 0 10.95-3.85 3.8-3.85 3.8-11.15 0-8.1-3.55-13.75z"/><path id="b" fill="none" stroke="#2F2F2F" stroke-linecap="round" stroke-linejoin="round" stroke-width="3" d="M47.4 19.95q5.55-.3 8.9 5.5m-31.65-5.5q-5.55-.3-8.9 5.5"/></defs><use xlink:href="#a"/><use transform="matrix(1 0 0 .69412 0 3.95)" xlink:href="#b"/><use transform="translate(-.05 -.25) scale(.5625)" xlink:href="#c"/><use transform="translate(-.05 -.25)" xlink:href="#d"/><g transform="matrix(.47298 0 0 .47298 5.75 8)"><use xlink:href="#e"/></g></svg>

<svg xmlns="http://www.w3.org/2000/svg" version="1.1" xmlns:xlink="http://www.w3.org/1999/xlink" preserveAspectRatio="none" x="0px" y="0px" width="72px" height="72px" viewBox="0 0 72 72">
<defs>
<g id="Layer1_0_FILL">
<path fill="#FCC21B" stroke="none" d="
M 36 5.45
Q 13.65 5.45 4.9 26.05 0.1 37.3 0.1 52.5 0.1 58.35 10.65 62.45 21.1 66.6 36 66.6 50.85 66.6 61.35 62.45 71.85 58.35 71.85 52.5 71.85 37.3 67.1 26.05 58.3 5.45 36 5.45 Z"/>
</g>

<g id="Layer1_2_MEMBER_0_FILL">
<path fill="#2F2F2F" stroke="none" d="
M 47.8 44.7
Q 45.35 41.85 42 41.9 38.65 41.95 36.25 44.8 33.9 47.7 33.95 51.7 34 55.7 36.4 58.55 38.85 61.35 42.2 61.3 45.55 61.25 47.9 58.4 50.25 55.55 50.25 51.55 50.2 47.5 47.8 44.7 Z"/>
</g>

<g id="Layer1_2_MEMBER_1_FILL">
<path fill="#2F2F2F" stroke="none" d="
M 45.3 32.9
Q 46.65 34.5 48.55 34.5 50.45 34.5 51.8 32.9 53.1 31.3 53.1 29.05 53.1 26.8 51.75 25.15 50.4 23.55 48.5 23.6 46.65 23.6 45.3 25.2 43.95 26.8 43.95 29.05 43.95 31.3 45.3 32.9 Z"/>
</g>

<g id="Layer0_0_FILL">
<path fill="#ED6C30" stroke="none" d="
M 75.2 75.55
Q 71.1 69.1 64 69.1 56.85 69.1 52.8 75.55 49.2 81.2 49.2 89.3 49.2 96.6 53 100.45 56.8 104.3 64 104.3 71.15 104.3 74.95 100.45 78.75 96.6 78.75 89.3 78.75 81.2 75.2 75.55 Z"/>
</g>

<path id="Layer1_1_1_STROKES" stroke="#2F2F2F" stroke-width="3" stroke-linejoin="round" stroke-linecap="round" fill="none" d="
M 47.4 19.95
Q 52.95 19.65 56.3 25.45
M 24.65 19.95
Q 19.1 19.65 15.75 25.45"/>
</defs>

<g id="Layer_1">
<g transform="matrix( 1, 0, 0, 1, 0,0) ">
<use xlink:href="#Layer1_0_FILL"/>
</g>

<g transform="matrix( 1, 0, 0, 0.694122314453125, 0,3.95) ">
<use xlink:href="#Layer1_1_1_STROKES"/>
</g>

<g transform="matrix( 0.5625, 0, 0, 0.5625, -0.05,-0.25) ">
<use xlink:href="#Layer1_2_MEMBER_0_FILL"/>
</g>

<g transform="matrix( 1, 0, 0, 1, -0.05,-0.25) ">
<use xlink:href="#Layer1_2_MEMBER_1_FILL"/>
</g>
</g>

<g transform="matrix( 0.4729766845703125, 0, 0, 0.4729766845703125, 5.75,8) ">
<use xlink:href="#Layer0_0_FILL"/>
</g>
</svg>
